X: 1
T:The Hellbound Train  "(c) Mark Saul Book 1"
M:C|
L:1/8
Q:80
C:Mark Saul
S:Trio (Thirds)
K:HP
|: {g}f2-f2|
-fg{a}fd|
{gef}e2-e2|  !
-eg-ga|
{f}g2-g2|
-g2a2|  !
e2-e2|
-e2{AGAG}A2|
{g}f2-f2|  !
-fg{a}fd|
{gef}e2-e2|
-ef{g}ec|  !
{Gdc}d2-d2|
-d2{g}c{d}A|
{GdG}B2-B2|  !
-B2-B2:| [|
{g}B/2{G}B/2{g}f/2B/2{G}B/2g/2{a}B/2{G}B/2|
{g}f/2B/2{G}B/2g/2{a}B/2{G}B/2{g}f/2B/2|  !
{g}B/2{G}B/2{g}f/2B/2{G}B/2g/2{a}B/2{G}B/2|
{g}f/2B/2{G}B/2g/2{a}B/2{G}B/2{g}f/2B/2|
{g}A/2{d}A/2{g}e/2A/2{g}A/2f/2{g}A/2{d}A/2|  !
{g}e/2A/2{g}A/2f/2{g}A/2{d}A/2{g}e/2A/2|
{g}A/2{d}A/2{g}e/2A/2{g}A/2f/2{g}A/2{d}A/2|
{g}e/2A/2{g}A/2f/2{g}A/2{d}A/2{g}e/2A/2|  !
{g}B/2{G}B/2{g}f/2B/2{G}B/2g/2{a}B/2{G}B/2|
{g}f/2B/2{G}B/2g/2{a}B/2{G}B/2{g}f/2B/2|
{g}f/2e/2f-f2|  !
{g}f/2e/2f-f2|
{g}A/2{d}A/2{g}e/2A/2{g}A/2f/2{g}A/2{d}A/2|
{g}e/2A/2{g}A/2f/2{g}A/2{d}A/2{g}e/2A/2|  !
{g}e/2d/2e-e2|
{g}e/2d/2e-e2|
{g}B/2{G}B/2{g}d/2B/2{G}B/2e/2{g}B/2{G}B/2|  !
{g}f/2B/2{G}B/2e/2{g}B/2{G}B/2{g}d/2B/2|
{g}c/2{G}c/2{g}e/2c/2{G}c/2f/2{g}c/2{G}c/2|
g/2c/2{G}c/2f/2{g}c/2{G}c/2{g}e/2c/2|  !
{g}d/2{c}d/2{g}f/2d/2{g}e/2{A}e/2g/2e/2|
{g}f/2{e}f/2a/2f/2g/2a/2{g}a/2g/2|
{a}f/2a/2f/2d/2{g}e/2g/2{a}e/2c/2|  !
{g}d/2B/2{g}B/2{G}B/2{g}B3/2|] |:
e/2|
{g}f/2B/2{g}B/2{G}B/2{g}d/2B/2{g}f/2B/2|
{g}B/2{G}B/2{g}f/2B/2{g}d/2f/2{g}B/2d/2|  !
{g}e/2c/2{g}c/2{G}c/2{g}c/2{d}A/2{g}e/2A/2|
{g}c/2e/2{g}A/2{d}c/2{g}e/2A/2{g}c/2{d}A/2|
{g}f/2B/2{g}B/2{G}B/2{g}d/2B/2{g}f/2B/2|  !
{g}B/2{G}B/2{g}f/2B/2{g}d/2f/2{g}B/2d/2|
{g}f/2a/2f/2d/2{g}e/2g/2{a}e/2c/2|
{g}d/2B/2{g}B/2{G}B/2{g}B3/2:| |:  !
A/2|
{gBeBG}B{g}d/2B/2{g}e/2B/2{g}f/2B/2|
{gBeBG}B{g}d/2B/2{g}e/2B/2{g}f/2B/2|
{gAGAG}A{g}c/2A/2{g}d/2A/2{g}e/2A/2|  !
{gAGAG}A{g}c/2A/2{g}d/2A/2{g}e/2A/2|
{gBeBG}B{g}d/2B/2{g}e/2B/2{g}f/2B/2|
{gBeBG}B{g}d/2B/2{g}e/2B/2{g}f/2B/2|  !
{g}f/2a/2f/2d/2{g}e/2g/2{a}e/2c/2|
{g}d/2B/2{g}B/2{G}B/2{g}B3/2:| [|
{gBeBG}B{g}d/2B/2{g}e/2B/2{g}f/2B/2|  !
{gBeBG}B{g}d/2B/2{g}e/2B/2{g}f/2B/2|
{g}B/2c/2d/2B/2{g}c/2d/2e/2c/2|
{g}d/2e/2f/2d/2{g}e/2f/2g/2e/2|] |:  !
{g}f/2a/2d/2f/2a/2d/2{g}f/2a/2|
f/2a/2d/2a/2c/2a/2B/2a/2|
e/2g/2c/2e/2g/2c/2{g}e/2g/2|  !
{a}e/2g/2A/2g/2B/2g/2c/2g/2|
{g}f/2a/2d/2f/2a/2d/2{g}f/2a/2|
f/2a/2d/2a/2c/2a/2B/2a/2|  !
f/2a/2f/2d/2{g}e/2g/2{a}e/2c/2|
{g}d/2B/2{g}B/2{G}B/2{g}B3/2:| [|
{g}f/2B/2{g}B/2{G}B/2g/2B/2{g}B/2{G}B/2|  !
a/2B/2{g}B/2{G}B/2g/2B/2{g}B/2{G}B/2|
{g}B/2{G}B/2{g}f/2B/2{G}B/2g/2{a}B/2{G}B/2|
a/2B/2{G}B/2g/2{a}B/2{G}B/2{g}f/2B/2|  !
{g}f/2A/2{g}A/2{G}A/2g/2A/2{g}A/2{G}A/2|
a/2A/2{g}A/2{G}A/2g/2A/2{g}A/2{G}A/2|
{g}A/2{G}A/2{g}f/2A/2{G}A/2g/2{a}A/2{G}A/2|  !
a/2A/2{G}A/2g/2{a}A/2{G}A/2{g}f/2A/2|
{g}f/2B/2{g}B/2{G}B/2g/2B/2{g}B/2{G}B/2|
a/2B/2{g}B/2{G}B/2g/2B/2{g}B/2{G}B/2|  !
f/2c/2{g}c/2{G}c/2g/2c/2{g}c/2{G}c/2|
a/2c/2{g}c/2{G}c/2{g}e/2c/2{g}c/2{G}c/2|
{g}d/2{c}d/2{g}f/2d/2{g}e/2{A}e/2g/2e/2|  !
{g}f/2{e}f/2a/2f/2g/2a/2{g}a/2g/2|
{a}f/2a/2f/2d/2{g}e/2g/2{a}e/2c/2|
{g}d/2B/2{g}B/2{G}B/2{g}B3/2|] |:  !
f/2|
{g}d2{e}B2|
{g}d2{e}B2|
{g}dB{g}cd|  !
{g}Bc{g}dB|
{g}c2{e}A2|
{g}c2{e}A2|  !
{g}cA{g}Bc|
{g}AB{g}cA|
{g}d2{e}B2|  !
{g}d2{e}B2|
{g}dB{g}cd|
{g}Bc{g}dB|  !
{g}d/2{c}d/2{g}f/2d/2{g}e/2{A}e/2g/2e/2|
{g}f/2{e}f/2a/2f/2g/2a/2{g}a/2g/2|
{a}f/2a/2f/2d/2{g}e/2g/2{a}e/2c/2|  !
{g}d/2B/2{g}B/2{G}B/2{g}B3/2:| [|
A/2|
{g}B/2{G}B/2a/2B/2{G}B/2g/2{a}B/2{G}B/2|
{g}f/2B/2{G}B/2g/2{a}B/2{G}B/2a/2B/2|  !
{g}f/2B/2{g}d/2B/2{g}e/2B/2{g}f/2B/2|
{g}d/2B/2{g}e/2B/2{g}f/2B/2{g}d/2B/2|
{g}A/2{G}A/2a/2A/2{G}A/2g/2{a}A/2{G}A/2|  !
{g}f/2A/2{G}A/2g/2{a}A/2{G}A/2a/2A/2|
{g}e/2A/2{g}c/2A/2{g}d/2A/2{g}e/2A/2|
{g}c/2A/2{g}d/2A/2{g}e/2A/2{g}c/2{d}A/2|  !
{g}B/2{G}B/2a/2B/2{G}B/2g/2{a}B/2{G}B/2|
{g}f/2B/2{G}B/2g/2{a}B/2{G}B/2a/2B/2|
{g}c/2{G}c/2a/2c/2{G}c/2g/2{a}c/2{G}c/2|  !
{g}f/2c/2{G}c/2g/2{a}c/2{G}c/2a/2c/2|
{g}d/2{c}d/2{g}f/2d/2{g}e/2{A}e/2g/2e/2|
{g}f/2{e}f/2a/2f/2g/2a/2{g}a/2g/2|  !
{a}f/2a/2f/2d/2{g}e/2g/2{a}e/2c/2|
{g}d/2B/2{g}B/2{G}B/2{g}B3/2:| |:
{g}A/2d/2f/2A/2{g}d/2f/2A/2d/2|  !
f/2A/2{g}d/2f/2{g}A/2d/2f/2A/2|
{g}A/2{d}c/2e/2A/2{d}c/2e/2{g}A/2{d}c/2|
e/2A/2{d}c/2e/2{g}A/2{d}c/2e/2A/2|  !
{g}G/2B/2d/2G/2{g}B/2d/2G/2B/2|
d/2G/2{g}B/2d/2{g}G/2B/2d/2G/2|
{g}A/2{d}c/2e/2A/2{d}c/2e/2{g}A/2{d}c/2|  !
e/2A/2{d}c/2e/2{g}A/2{d}c/2e/2A/2:|
